X:1
T:Title
%%score { 1 | 2 }
L:1/8
M:4/4
K:F
V:1 treble nm="Grand Piano"
V:2 bass 
V:1
 z4 z2 z[Q:1/4=94] C | FFFF F3 G | AAAA [EG] F2 A |[M:7/8] [EG][EG][EG] [EG] [EG]3 |[M:1/8] [CF] | %5
[M:4/4] [FA][FA][FA][FA] [EG] F2 F | FAcd c3 c |[M:3/4] [Fd][Fd] [Fd][Fd] cA |[M:1/4] F[FG] | %9
[M:4/4] [FA]4 [EG]2 [EG]2 | F6 z2 | FFFF F2 FG | A2 AA [EG] F3 | [EG][EG][EG][EG] [EG]2 [DF][EG] | %14
 A2 AA [EG] F3 | FAcd c2 Ac | [Fd]2 [Fd][Fd] cAFG | Ac c2 c2 F[FG] | %18
[M:7/8] [FA]2 [EG] [EG] [CF]2 z |] %19
V:2
 z4 z2 z [F,A,] | [F,A,C][F,A,C][F,A,C][F,A,C] [F,A,C]3 [F,B,F] | %2
 [F,CF][F,CF][F,CF][F,CF] [C,B,] [F,A,]2 [F,CF] |[M:7/8] [C,C][C,C][C,C] [C,C] [C,B,]3 | %4
[M:1/8] [C,A,] |[M:4/4] [C,C][C,C][C,C][C,C] [C,B,] [F,A,]2 [F,A,] | %6
 [F,A,][F,CF][F,A,F][F,B,F] [F,A,F]3 [F,A,F] |[M:3/4] [B,,B,][B,,B,] [B,,B,][B,,B,] [F,A,F][F,CF] | %8
[M:1/4] [D,A,][^C,=B,] |[M:4/4] [C,C]4 [C,B,]2 [C,B,]2 | [F,A,]6 z2 | %11
 [F,A,C][F,A,C][F,A,C][F,A,C] [F,A,C]2 [F,A,][F,B,F] | [F,CF]2 [F,CF][F,CF] [C,B,] [F,A,]3 | %13
 [C,C][C,C][C,C][C,C] [C,B,]2 [D,A,][C,C] | [F,CF]2 [F,CF][F,CF] [C,B,] [F,A,]3 | %15
 [F,A,][F,CF][F,A,F][F,B,F] [F,A,F]2 [F,CF][F,A,F] | %16
 [B,,B,]2 [B,,B,][B,,B,] [F,A,F][F,CF][F,A,][F,B,F] | %17
 [F,CF][F,A,F] [F,A,F]2 [F,A,F]2 [D,A,][^C,=B,] |[M:7/8] [C,C]2 [C,B,] [C,B,] [F,A,]2 z |] %19

